X: 1
T: Med Ludvig i Sekken
T: With Ludvig in Sekken
O: Norway
C: composer unknown
R: waltz
S: Bruce Sagan's "scanfolk" session archive
F: https://app.box.com/s/u6iiren0igvsukrhdducy7orq72jayq8/file/887498512264
% Note at bottom: "Sonjas Entdeckung 2020"
Z: 2021 John Chambers <jc:trillian.mit.edu>
M: 3/4
L: 1/8
K: C
"^A"[|]C2D2 |\
"C"E3GG2 | G2c2B2 | "F"A2G2F2 | "C"G2 C2D2 | "Am"E3AA2 | A2G2E2 | "F"A2G2E2 | "G"D2 C2D2 |
"C"E3GG2 | G2c2B2 | "F"A2G2F2 | "C"G2 C2D2 | "F"E2A2G2 | "G"E2D3C | "F"C2 CD "G"CB, | "C"C2 :|
"^B"|: A2B2 |\
"Am"c3cc2 | c2A2B2 | "F"cBA2G2 | "C"E2 A2B2 | "Am"c3cc2 | c2d2e2 | "F"e2d2c2 | "G"d2 A2B2 |
"Am"c3cc2 | c2A2B2 "1"| "F"cBA2G2 | "C"E2 A2B2 | "F"E2A2G2 | "G"E2D3C | "F"C2 CD "G"CB, |[" " "C"C2 :|["End" "C"C6 |]
y18 "1: alternat:"y | "F"B2/A2/G2F2 | "C"G2C2D2 |
%%text Sekken is a small island (and a small town on the island) about 80 km north of Bergen, Norway.
